X:1
T: Lieutenant Colonel Montgomery's Reel
C:
R:Jig
Q: 180
K:Gm
M:6/8
L:1/8
|A|BcB Bcd|BGG G2A|BcB dcB|AFF F2A|
BcB ABA|G2g f2e|dcB cBA|BGG G2:|
|:A|BcB fdB|fdB fdB|c3/2d1/2c gec|gec gec|
BcB fga|bag fed|cBA Bcd|BGG G2:|
